X:2923
T:This old man
C:anon.
Z:Transcribed by Frank Nordberg - http://www.musicaviva.com
F:http://abc.musicaviva.com/tunes/anon/this-old-man/this-old-man-1.abc
M:C
L:1/4
K:C
GEG2|GEG2|AGFE|DEFE/F/|
GCC/C/C|C/D/E/F/G2|GDDF|EDC2|]
W:
W:
W:  From Musica Viva - http://www.musicaviva.com
W:  the Internet center for free sheet music downloads.

